!!!OTL: Die Raubritter
!!!ARE: Europa, Mitteleuropa, Deutschland
!!!SCT: A0380
!!!YEM: Copyright 1995, estate of Helmut Schaffrath.
**kern
*ICvox
*Ivox
!! Mixed meters:  4/2; 6/2
*M4/2
*k[b-e-]
*g:
{1g
=1
2b-
2cc
2dd
2ee
=2
1ffn
1dd}
=3
{1cc
=4
*M6/2
1dd
2b-
2cc
1a
=5
*M4/2
1g}
{1g
=6
2b-
2cc
2dd
2ee
=7
1ffn
1dd}
=8
{1cc
=9
*M6/2
1dd
2b-
2cc
1a
=10
*M4/2
1g
2r}
{2b-
=11
*M6/2
2.a
4b-
2cc
1dd
2cc
=12
1b-
1a
2r}
{2b-
=13
1a
2b-
1cc
4b-
4a
=14
*M4/2
1g
1fn}
=15
{1g
=16
*M6/2
1a
2b-
1a
4g
4fn
=17
*M4/2
1e
1d}
=18
{1dd
=19
*M6/2
1dd
2b-
2cc
1a
=20
1g}
==
!!!AGN: Romanze, Ballade, Lied, Personenlied
!! Hs. auf einem Vorsatzblatt aus dem Anfang des 16. Jh.
!!!ONB: ESAC (Essen Associative Code) Database: ALTDEU
!!!AMT: irregular
!!!AIN: vox
!!!EED: Helmut Schaffrath
!!!EEV: 1.0
*-
